X:1
T:Title
%%score { ( 1 4 ) | ( 2 3 ) }
L:1/8
M:4/4
K:Eb
V:1 treble nm="Grand Piano"
V:4 treble 
V:2 bass 
V:3 bass 
V:1
 z4 z2[Q:1/4=100] [GB][GB] | [Gc]<[Gc] [GB]2 G2 _G=G | A2 G2 E2 FG | A2 .[A,C]2 [B,CG]2 [A,CF]2 | %4
 [G,E]4 D2 [DB]B | c<c B2 G2 _G=G | A2 GG [G,B,E]2 E-[EG] | F2 G2 =A2 dc |[M:3/4] [Ec]4 [DB]2 | %9
[M:1/4] [DAB][EAc] |[M:4/4] [FAd]<[FAd] [FAc]2 [DFA]2 [GB]c | [EGB]2 [B,EG]2 [EGB]2 [B,FA][B,EG] | %12
 [B,DF]2 [B,EG][B,EG] [B,FA]2 [DAB]2 | [EGB]4 [B,EG]2 [EGB][EGc] | %14
 [FAd]<[FAd] [FAc]2 [DFA]2 [DGB][DAc] |[M:9/8] [GB]<[GB][EB]- [EB] [Ee]2- [Ee][E=A][EA] | %16
[M:4/4] [EB]<[EB] z2 [DG]<[DG] [A,DF]2 |[M:3/4] [G,B,E]6 |] %18
V:2
 z4 z2 [E,B,][E,B,] | [E,E]<[E,E] [E,E]2 [E,B,E]2 [E,E]-[E,B,E] | z4 z2 .[A,C]2 | %3
 [F,CE]2 z C A,,2 A,,2 | z4 F,2 z D | E<E [E,G,E]2 [E,B,E]2 E-[E,B,E] | [E,CE]2 EE E,2 C,[C,B,] | %7
 [F,=A,E]2 [F,B,E]2 [F,CE]2 [F,B,F][F,A,E] |[M:3/4] [F,=A,]4 [B,,B,]2 |[M:1/4] B,,B,, | %10
[M:4/4] B,,<B,, D,2 F,2 z A | E,2 E,2 E,2 E,E, | B,,2 B,,B,, D,2 B,,2 | E,4 E,2 E,E, | %14
 B,,<B,, D,2 F,2 B,,B,, |[M:9/8] [E,E]<[E,E][E,G,]- [E,G,] [C,G,]2- [C,G,][=B,,_G,][B,,G,] | %16
[M:4/4] [B,,G,]<[B,,G,] z2 [B,,B,]<[B,,B,] B,,2 |[M:3/4] E,,6 |] %18
V:3
 x8 | z4 z2 .A,2 | [E,CE]2 [E,B,E]2 [E,G,B,]2 E-[G,CE] | z2 F,,2 z4 | B,,6 [B,,A,]2 | %5
 [E,G,]2 z2 z2 .[E,=A,]2 | z2 [E,B,]2 z4 | x8 |[M:3/4] x6 |[M:1/4] x2 |[M:4/4] z4 z2 B,,2 | x8 | %12
 x8 | x8 | x8 |[M:9/8] x9 |[M:4/4] x8 |[M:3/4] x6 |] %18
V:4
 x8 | x8 | x8 | x8 | B,6 z2 | x8 | z4 z2 .[A,F]2 | x8 |[M:3/4] x6 |[M:1/4] x2 |[M:4/4] z4 z2 D2 | %11
 x8 | x8 | x8 | x8 |[M:9/8] x9 |[M:4/4] x8 |[M:3/4] x6 |] %18

